X: 173
T: Miss Ann Dalrymple's Strathspey
R: strathspey
B: William Shepherd "2nd Collection" 1800 p.17 #3
F: http://imslp.org/wiki/File:PMLP73094-Shepherd_Collections_HMT.pdf
C: William Shepherd (17??-1812)
Z: 2012 John Chambers <jc:trillian.mit.edu>
M: C
L: 1/8
K: F
c |\
Tf<ff>d e<g-Tg>a | Tf<fa>f b>ga>f |\
f<af>c e<g-Tg>a | d<ge>c Tf2fc |
Tf<ff>d e<g-Tg>a | Tf<fa>f b>ga>f |\
f>c {b}a.g/.f/ e<g-g>a | d>g {f}e.d/.c/ f2f ||
A |\
F<cA<c E<cG<c | F<cA>c f<ad<f |\
F<cA<c E<cG<c | d>ge>c Tf2f>A |
F<cA<c E<cG<c | F<cA>c f<af>c |\
d<f {d}c>F E>Gc>B | A>f e/f/g/e/ f2Tf |]
